assets/svgs/sweet-17-color/Sweet17Color23.svg

<svg xmlns="http://www.w3.org/2000/svg" data-name="Layer 1" viewBox="0 0 128 128"><path fill="#fc5796" d="M96.705 103.523h-65.41l5.303-60.732h54.803l5.304 60.732z"/><path fill="#2d2f70" d="M47.193 42.794v8.554a1.25 1.25 0 102.5 0v-7.307h23.64a1.25 1.25 0 000-2.5h-23.64v-1.508a14.307 14.307 0 0128.614 0v11.315a1.25 1.25 0 102.5 0v-7.307h9.449l4.3 49.268A1.25 1.25 0 0095.8 94.45h.11a1.249 1.249 0 001.136-1.353l-4.4-50.409a1.249 1.249 0 00-1.246-1.147H80.807v-1.508a16.807 16.807 0 00-33.614 0v2.76z"/><path fill="#2d2f70" d="M96.705 102.273H32.659l5.085-58.232H43a1.25 1.25 0 000-2.5h-6.4a1.249 1.249 0 00-1.245 1.142l-5.3 60.732a1.25 1.25 0 001.245 1.358h65.41a1.25 1.25 0 000-2.5zM96.056 96.089a1.25 1.25 0 00-1.137 1.354l.036.41a1.25 1.25 0 001.245 1.141h.11a1.25 1.25 0 001.137-1.354l-.036-.41a1.25 1.25 0 00-1.355-1.141z"/></svg>

<svg id="Layer_1" data-name="Layer 1" xmlns="http://www.w3.org/2000/svg" viewBox="0 0 128 128"><title>SOUVENIR BAG</title><polygon points="96.705 103.523 31.295 103.523 36.598 42.791 91.401 42.791 96.705 103.523" style="fill:#fc5796"/><path d="M47.193,42.794v8.554a1.25,1.25,0,1,0,2.5,0V44.041h23.64a1.25,1.25,0,0,0,0-2.5H49.693V40.033a14.307,14.307,0,0,1,28.614,0V51.348a1.25,1.25,0,1,0,2.5,0V44.041h9.449l4.3,49.268A1.25,1.25,0,0,0,95.8,94.45c.037,0,.073,0,.11,0a1.249,1.249,0,0,0,1.136-1.353l-4.4-50.409A1.249,1.249,0,0,0,91.4,41.541H80.807V40.033a16.807,16.807,0,0,0-33.614,0v2.76Z" style="fill:#2d2f70"/><path d="M96.705,102.273H32.659l5.085-58.232H43a1.25,1.25,0,0,0,0-2.5H36.6a1.249,1.249,0,0,0-1.245,1.142l-5.3,60.732a1.25,1.25,0,0,0,1.245,1.358h65.41a1.25,1.25,0,0,0,0-2.5Z" style="fill:#2d2f70"/><path d="M96.056,96.089a1.25,1.25,0,0,0-1.137,1.354l.036.41A1.25,1.25,0,0,0,96.2,98.994c.036,0,.073,0,.11,0a1.25,1.25,0,0,0,1.137-1.354l-.036-.41A1.25,1.25,0,0,0,96.056,96.089Z" style="fill:#2d2f70"/></svg>
